build/finance/GoldSolid.svg

<svg xmlns="http://www.w3.org/2000/svg" fill="none" viewBox="0 0 24 24" focusable="false"><path d="M0 0H24V24H0z"/><path fill="#74767B" fill-rule="evenodd" d="M2.00024 8.00512C2.00018 6.34822 3.34334 5.005 5.00024 5.005L18.9997 5.005C20.6565 5.005 21.9996 6.34808 21.9997 8.00489L22 15.9949C22.0001 17.6518 20.6569 18.995 19 18.995L5.00056 18.995C3.34375 18.995 2.00062 17.6519 2.00055 15.9951L2.00024 8.00512ZM8.49126 7.98969C8.75217 7.98945 8.98793 8.14524 9.09002 8.38535L11.9437 15.0969C12.0842 15.4273 11.9303 15.8089 11.5999 15.9494C11.2695 16.0899 10.8878 15.9359 10.7474 15.6056L10.0659 14.0029L6.92858 14.0029L6.25099 15.6045C6.11112 15.9351 5.72971 16.0897 5.3991 15.9499C5.06849 15.81 4.91386 15.4286 5.05374 15.098L7.89322 8.38642C7.99488 8.14614 8.23036 7.98992 8.49126 7.98969ZM14.6497 10.6453C14.6497 10.2863 14.3587 9.99533 13.9997 9.99533C13.6408 9.99533 13.3497 10.2863 13.3497 10.6453L13.3497 13.1791C13.3497 14.741 14.6159 16.0071 16.1777 16.0071C17.7395 16.0071 19.0057 14.741 19.0057 13.1791L19.0057 10.6453C19.0057 10.2863 18.7146 9.99533 18.3557 9.99533C17.9967 9.99533 17.7057 10.2863 17.7057 10.6453L17.7057 13.1791C17.7057 14.023 17.0216 14.7071 16.1777 14.7071C15.3338 14.7071 14.6497 14.023 14.6497 13.1791L14.6497 10.6453ZM8.49334 10.3044L9.51319 12.7029L7.47857 12.7029L8.49334 10.3044Z"/></svg>

<svg xmlns="http://www.w3.org/2000/svg" fill="none" viewBox="0 0 24 24" focusable="false"><path fill="#74767B" fill-rule="evenodd" d="M2 8c0-1.66 1.34-3 3-3h13.99c1.66 0 3 1.34 3 3l.01 7.99c0 1.66-1.35 3-3 3H5c-1.66 0-3-1.34-3-3zm6.49-.02c.26 0 .49.16.6.4l2.85 6.71c.14.33-.01.71-.35.85a.646.646 0 0 1-.85-.34l-.68-1.6H6.92l-.67 1.6c-.14.33-.53.48-.86.34a.643.643 0 0 1-.34-.85l2.84-6.71c.1-.24.34-.4.6-.4m6.15 2.66c0-.36-.29-.65-.65-.65-.35 0-.65.29-.65.65v2.53c0 1.57 1.27 2.83 2.83 2.83S19 14.74 19 13.17v-2.53c0-.36-.29-.65-.65-.65s-.65.29-.65.65v2.53c0 .85-.68 1.53-1.53 1.53-.84 0-1.53-.68-1.53-1.53zm-6.15-.34 1.02 2.4H7.47z"/></svg>
